X: 1
T: Miss Johnstone of Ardrossan
T: 5x32R 5C (Goldring 14 Social D. for 2000)
P: Ardrossan Hornpipe
C: Muriel Johnstone
C: arr. T. Traub 10-14-2015
R: reel
M: 4/4
K: A
L: 1/8
|: a2|"A"e2 AB cAec|"E"B2 EG BEdB|"A"cAeA "D"fA"A"eA|"E"B2 E2 E2 a2|"A"e2 AB cAec|"E"B2 EG BEdB|"A"cA"D"df "E"ecBd|"A"c2 A2 A2 :|
|: (3EFG|"A"A2 EA cAGA|"Bm"FBcB dB^AB|"E"G2 ef gefg|"A"a2 A2 "E"BEFG|"A"A2 EA cAGA|"Bm"FBcB dB^AB|"E"G2 gf ecBd|"A"c2 A2 A2 :|

